svgs/sharp-light/landmark-dome.svg

<svg xmlns="http://www.w3.org/2000/svg" viewBox="0 0 512 512"><!--! Font Awesome Pro 6.6.0 by @fontawesome - https://fontawesome.com License - https://fontawesome.com/license (Commercial License) Copyright 2024 Fonticons, Inc. --><path d="M272 0l0 16 0 16.7c87.9 7.2 159 73.7 173.3 159.3l18.7 0 16 0 0 32-16 0-16 0-32 0L96 224l-32 0-16 0-16 0 0-32 16 0 18.7 0C81 106.3 152.1 39.9 240 32.7L240 16l0-16 32 0zM99.2 192l313.6 0C398 119 333.4 64 256 64s-142 55-156.8 128zM64 352l0-96 32 0 0 96 80 0 0-96 32 0 0 96 96 0 0-96 32 0 0 96 80 0 0-96 32 0 0 96 16 0 0 32-16 0L64 384l-16 0 0-32 16 0zM24 448l0-32 16 0 432 0 16 0 0 32-16 0L40 448l-16 0zM0 480l16 0 480 0 16 0 0 32-16 0L16 512 0 512l0-32z"/></svg>

<svg xmlns="http://www.w3.org/2000/svg" viewBox="0 0 512 512"><!--! Font Awesome Pro 6.4.2 by @fontawesome - https://fontawesome.com License - https://fontawesome.com/license (Commercial License) Copyright 2023 Fonticons, Inc. --><path d="M272 0V16 32.7c87.9 7.2 159 73.7 173.3 159.3H464h16v32H464 448 416 96 64 48 32V192H48 66.7C81 106.3 152.1 39.9 240 32.7V16 0h32zM99.2 192H412.8C398 119 333.4 64 256 64s-142 55-156.8 128zM64 352V256H96v96h80V256h32v96h96V256h32v96h80V256h32v96h16v32H448 64 48V352H64zM24 448V416H40 472h16v32H472 40 24zM0 480H16 496h16v32H496 16 0V480z"/></svg>
